X: 30118
T: Old Blackthorn, The
R: reel
M: 4/4
K: Dmajor
fe|d2FABAFA|D2dcBABc|dFF/F/F AFF/F/F|GBAFD2fe|
d2FABAFA|D2dcBABc|dFF/F/F AFF/F/F|GBAFD4|
d2fdegfe|A2c/B/AeAc/B/A|defga2ab|afegfdec|
d2 fdegfe|A2c/B/AeAc/B/A|defga2ab|afged4|

